X:1069
T:Waterbed
R:reel
C:Diarmuid Moynihan
D:L\'unasa
Z:id:hn-reel-1069
M:C|
L:1/8
K:Ador
EAAE BcAG | EGDG ED (3EFG | AEGA cA~A2 | (3Bcd eg dcAG |
EAAE BcAG | EGDG ED (3Bcd | ecdc AEGA | cAGE EDD2 :|
|: e2de ge~e2 | cdec dcAG | e2de ga~a2 | gedc AEGA |
e2de ge~e2 | cdec dega | gaeg dEGA | cAGE EDD2 :|

